X: 364
T: Kaiha diao
%%abc-version 2.0
%%abcx-abcm2ps-target-version 5.9.1 (29 Sep 2008)
%%abc-creator hum2abc beta
%%abcx-conversion-date 2013/10/02 07:52:30
%%abc-edited-by Helmut Schaffrath
%%humdrum-veritas 2902061069
%%humdrum-veritas-data 2905434346
%%continueall 1
%%barnumbers 0
L: 1/4
M: 3/4
K: F
AED [I:setbarnb 1]| 
C/ D/C2 | 
C2-C/ f/ | 
Acc/ c// G// | 
FA2 | 
GED | 
CD/ C/A, | 
GA/ G/F | 
G2A | 
DFC/ D/ | 
C3 |]  



